X:63
T: Haste to the Wedding
M:6/8
K:D
L:1/8
uA | "D" AFA Agf | "G" ede fdB | "D" AFA AdB | "A" GFG EFG | "D" AFA Agf |
"G" ede fdB | "A" A2 g faf | "D" ded d2 :: a | "D" afa afa | "G" bgb bag |
"D" afa agf | "A" gfg efg | "D" a3 f (a/f/ | "G" e)de fdB | "A" A2 g faf | "D" ded d2 :|

